svgs/thin/person-circle-xmark.svg

<svg xmlns="http://www.w3.org/2000/svg" viewBox="0 0 576 512"><!--! Font Awesome Pro 6.4.0 by @fontawesome - https://fontawesome.com License - https://fontawesome.com/license (Commercial License) Copyright 2023 Fonticons, Inc. --><path d="M160 96a40 40 0 1 0 0-80 40 40 0 1 0 0 80zm0-96a56 56 0 1 1 0 112A56 56 0 1 1 160 0zM141.1 144c-21.5 0-41.1 12.3-50.4 31.7L23.2 315.5c-1.9 4-6.7 5.6-10.7 3.7s-5.6-6.7-3.7-10.7L76.3 168.7c12-24.9 37.2-40.7 64.8-40.7h37.8c27.6 0 52.8 15.8 64.8 40.7l46.1 95.5c-3.7 5-7.1 10.2-10.2 15.6L229.3 175.7C220 156.3 200.4 144 178.9 144H141.1zM104 248V480c0 8.8 7.2 16 16 16s16-7.2 16-16V360c0-13.3 10.7-24 24-24s24 10.7 24 24V480c0 8.8 7.2 16 16 16s16-7.2 16-16V248c0-4.4 3.6-8 8-8s8 3.6 8 8V480c0 17.7-14.3 32-32 32s-32-14.3-32-32V360c0-4.4-3.6-8-8-8s-8 3.6-8 8V480c0 17.7-14.3 32-32 32s-32-14.3-32-32V248c0-4.4 3.6-8 8-8s8 3.6 8 8zM560 368a128 128 0 1 0 -256 0 128 128 0 1 0 256 0zm-272 0a144 144 0 1 1 288 0 144 144 0 1 1 -288 0zm205.7-50.3L443.3 368l50.3 50.3c3.1 3.1 3.1 8.2 0 11.3s-8.2 3.1-11.3 0L432 379.3l-50.3 50.3c-3.1 3.1-8.2 3.1-11.3 0s-3.1-8.2 0-11.3L420.7 368l-50.3-50.3c-3.1-3.1-3.1-8.2 0-11.3s8.2-3.1 11.3 0L432 356.7l50.3-50.3c3.1-3.1 8.2-3.1 11.3 0s3.1 8.2 0 11.3z"/></svg>

<svg xmlns="http://www.w3.org/2000/svg" viewBox="0 0 576 512"><!--! Font Awesome Pro 6.3.0 by @fontawesome - https://fontawesome.com License - https://fontawesome.com/license (Commercial License) Copyright 2023 Fonticons, Inc. --><path d="M103.1 56C103.1 25.07 129.1 0 159.1 0C190.9 0 215.1 25.07 215.1 56C215.1 86.93 190.9 112 159.1 112C129.1 112 103.1 86.93 103.1 56zM159.1 96C182.1 96 199.1 78.09 199.1 56C199.1 33.91 182.1 16 159.1 16C137.9 16 119.1 33.91 119.1 56C119.1 78.09 137.9 96 159.1 96zM141.1 144C119.6 144 100 156.3 90.67 175.7L23.21 315.5C21.29 319.5 16.5 321.1 12.53 319.2C8.546 317.3 6.877 312.5 8.797 308.5L76.26 168.7C88.27 143.8 113.5 128 141.1 128H178.9C206.5 128 231.7 143.8 243.7 168.7L289.8 264.2C286.2 269.2 282.8 274.5 279.6 279.9L229.3 175.7C219.1 156.3 200.4 144 178.9 144H141.1zM104 480C104 488.8 111.2 496 120 496C128.8 496 135.1 488.8 135.1 480V360C135.1 346.7 146.7 336 160 336C173.3 336 184 346.7 184 360V480C184 488.8 191.2 496 200 496C208.8 496 215.1 488.8 215.1 480V248C215.1 243.6 219.6 240 223.1 240C228.4 240 231.1 243.6 231.1 248V480C231.1 497.7 217.7 512 200 512C182.3 512 168 497.7 168 480V360C168 355.6 164.4 352 160 352C155.6 352 151.1 355.6 151.1 360V480C151.1 497.7 137.7 512 120 512C102.3 512 88 497.7 88 480V248C88 243.6 91.58 240 96 240C100.4 240 104 243.6 104 248V480zM443.3 368L493.7 418.3C496.8 421.5 496.8 426.5 493.7 429.7C490.5 432.8 485.5 432.8 482.3 429.7L432 379.3L381.7 429.7C378.5 432.8 373.5 432.8 370.3 429.7C367.2 426.5 367.2 421.5 370.3 418.3L420.7 368L370.3 317.7C367.2 314.5 367.2 309.5 370.3 306.3C373.5 303.2 378.5 303.2 381.7 306.3L432 356.7L482.3 306.3C485.5 303.2 490.5 303.2 493.7 306.3C496.8 309.5 496.8 314.5 493.7 317.7L443.3 368zM576 368C576 447.5 511.5 512 432 512C352.5 512 288 447.5 288 368C288 288.5 352.5 224 432 224C511.5 224 576 288.5 576 368zM432 240C361.3 240 304 297.3 304 368C304 438.7 361.3 496 432 496C502.7 496 560 438.7 560 368C560 297.3 502.7 240 432 240z"/></svg>
